svg/happy_negative.svg

<?xml version="1.0" encoding="UTF-8" standalone="no"?>
<!-- Created with Inkscape (http://www.inkscape.org/) -->
<svg id="svg8" xmlns:rdf="http://www.w3.org/1999/02/22-rdf-syntax-ns#" xmlns="http://www.w3.org/2000/svg" xmlns:osb="http://www.openswatchbook.org/uri/2009/osb" height="48" width="48" version="1.1" xmlns:cc="http://creativecommons.org/ns#" viewBox="0 0 12.7 12.7" xmlns:dc="http://purl.org/dc/elements/1.1/">
 <title id="title4753">UIO-icon</title>
 <metadata id="metadata5">
  <rdf:RDF>
   <cc:Work rdf:about="">
    <dc:format>image/svg+xml</dc:format>
    <dc:type rdf:resource="http://purl.org/dc/dcmitype/StillImage"/>
    <dc:title>UIO-icon</dc:title>
    <dc:creator>
     <cc:Agent>
      <dc:title>Joaquín Urbano</dc:title>
     </cc:Agent>
    </dc:creator>
    <dc:rights>
     <cc:Agent>
      <dc:title>GPL</dc:title>
     </cc:Agent>
    </dc:rights>
   </cc:Work>
  </rdf:RDF>
 </metadata>
 <g id="layer1" fill="#333" transform="translate(0,-284.3)">
  <path id="rect1040" d="m24 4.5176c-10.76 0-19.482 8.7224-19.482 19.482-0.0004 10.76 8.722 19.482 19.482 19.482s19.482-8.722 19.482-19.482-8.722-19.482-19.482-19.482zm-6.854 9.3654c1.9529-0.001153 3.5367 2.0959 3.5371 4.6836 0.00040247 2.5884-1.5836 4.6867-3.5371 4.6855-1.9528-0.00027629-3.5356-2.0981-3.5352-4.6855 0.0004119-2.5866 1.583-4.6833 3.5352-4.6836zm12.904 0c1.9529-0.001153 3.5367 2.0959 3.5371 4.6836 0.00040247 2.5884-1.5836 4.6867-3.5371 4.6855-1.9528-0.00027629-3.5356-2.0981-3.5352-4.6855 0.0004119-2.5866 1.583-4.6833 3.5352-4.6836zm-18.913 14.447h24.925v0.514h-0.015625c-0.18648 3.6201-2.5316 6.9087-6.2188 8.7207-3.8569 1.8948-8.6087 1.894-12.465-0.001953-3.679-1.8157-6.0161-5.1027-6.1992-8.7188h-0.027344v-0.4707z" fill-rule="evenodd" transform="matrix(.26458 0 0 .26458 0 284.3)"/>
 </g>
</svg>

<svg width="48" height="48" viewBox="0 0 48 48" fill="none" xmlns="http://www.w3.org/2000/svg">
<path fill-rule="evenodd" clip-rule="evenodd" d="M23.9996 4.51758C13.2397 4.51758 4.51782 13.2399 4.51782 23.9993C4.51742 34.7592 13.2397 43.4811 23.9996 43.4811C34.7594 43.4811 43.4813 34.7592 43.4813 23.9993C43.4813 13.2395 34.7594 4.51758 23.9996 4.51758ZM17.1457 13.8829C19.0985 13.8817 20.6823 15.9787 20.6827 18.5664C20.6831 21.1548 19.0991 23.253 17.1457 23.2518C15.1929 23.2516 13.6101 21.1538 13.6105 18.5664C13.6109 15.9798 15.1935 13.8832 17.1457 13.8829ZM30.0495 13.8829C32.0024 13.8817 33.5862 15.9787 33.5866 18.5664C33.587 21.1548 32.003 23.253 30.0495 23.2518C28.0967 23.2516 26.5139 21.1538 26.5143 18.5664C26.5148 15.9798 28.0973 13.8832 30.0495 13.8829ZM11.1367 28.3297H36.0614V28.8437H36.0458C35.8593 32.4637 33.5142 35.7523 29.8271 37.5643C25.9702 39.459 21.2185 39.4582 17.3622 37.5623C13.6833 35.7466 11.3462 32.4597 11.1631 28.8436H11.1358V28.3729L11.1367 28.3297Z" fill="#333333"/>
</svg>
